X:1
T:Klezmer Kerry Polka #1
T:Klezmer Kerry Polka #1
T:Rich Sobel
C:Rich Sobel
L:1/8
M:2/4
K:Dmin
V:1 treble 
V:1
 de |:"Dm" f/e/d/f/"A" e/d/^c/e/ |"Dm" dA de | f/e/d/f/"A" e/d/^c/d/- |"Dm" d2 de | %5
"Dm" f/e/d/f/"A" e/d/^c/e/ |"Dm" dA"Gm" B/A/G |"Dm" A/G/F"A7" G/F/E |1"Dm" D2 [Dd]e :|2 %9
"Dm" D2 d z |:"Gm" [Bg]2 [Bg]>a |{a} bg g2 |"Dm" f/e/f/g/ af | d3 f |"A" ea ea | ea a2 |1 %16
"Dm" d/^c/d/e/ fg | af d2 :|2"A7" b/a/g fe |"Dm" d2 |] %20

